X: 460
%
U:~=!turn!
T: Mrs. Campbell of Lochnell
C:Robt. Macintosh
O:Scotland
B:Keith Norman MacDonald : "The Skye collection of the best reels & strathspeys extant" : 1887
Z:Ralph Palmer
R:Reel
M:C|
L:1/8
K:C
G | {/B}c2 (Gc) ECGE | {/B}c2 ec dDDB | [1{/B}c2 (AF) EGCE | FDG,G ECC :| [2 {/B}c2 (Ac) GcEc | defd ecc  ||
|: G | EC(EG) AF(Ac) | ECFE DG,G,F | [1 EC(EG) AFAc | BdGf ecc :| [2 EGFA G_BAc | Bagf ecc |]


